X: 25839
T: Master McDermott's
R: reel
M: 4/4
K: Dmajor
|:DF F2 DFAB|defe dB B2|AF F2 BFAF|E3F BFAF|
DF F2 DFAB|defe dB B2|AF F2 dFAF|EDFE D4:|
|:df f2 dfaf|g2 fe dB B2|dBBA Bcde|fdgf e2 fe|
dfaf g2 bg|fafe dB B2|AF F2 dFAF|EDFE D4:|

